X: 1
T: Tobin's Favorite
R: jig
Z: 1997 by John Chambers <jc:trillian.mit.edu>
M: 6/8
L: 1/8
K: D
| "D"DFA ~d3 | "A7"ecA cde | "D"~f3  "G"~g3 | "A7"ecA    GFE \
| "D"DFA ~d3 | "A7"ecA cde | "D"faf "A7"gec |     edc "D"d3 :|
|:"D"dfa agf | "A7"efg efg | "D"fef  "G"gfg | "A7"ecA    GFE \
| "D"DFA ~d3 | "A7"ecA cde | "D"faf "A7"gec |     edc "D"d3 :|
